COLOR/categories 16/16/applications-graphics.svg

<svg height="16" width="16" xmlns="http://www.w3.org/2000/svg" xmlns:xlink="http://www.w3.org/1999/xlink"><radialGradient id="a" cx="-256" cy="-256.20001" gradientTransform="matrix(0 -.04166673 -.04166673 0 -2.675016 -2.66699)" gradientUnits="userSpaceOnUse" r="96"><stop offset="0" stop-opacity="0"/><stop offset=".89867342" stop-opacity="0"/><stop offset=".94933045" stop-opacity=".261658"/><stop offset="1"/></radialGradient><path d="m15.500014 4.8542202c0-3.04166-.30899-3.36894-3.32331-3.35403h-4.1766895-4.17669c-3.01432002-.0149-3.32331006.31237-3.32331006 3.35403v6.2914598c0 3.04167.30895004 3.35404 3.32331006 3.35404h4.17669 4.1766895c3.01435 0 3.32331-.31238 3.32331-3.35404z" fill="#e6e6e6"/><g transform="matrix(0 -1 -1 0 0 0)"><circle cx="-7.999721" cy="-8.000006" opacity=".05" r="5.333334" stroke="#000" stroke-width="1.333333"/><circle cx="-8.999721" cy="-8.000006" opacity=".1" r="5"/><circle cx="-7.999721" cy="-8.000006" fill="#f2f2f2" r="5"/><circle cx="-7.999721" cy="-8.000006" fill="#46444a" r="4"/></g><path d="m7.9999745 3.9996502a4.0000067 4.0000067 0 0 0 -3.99997 4.00004 4.0000067 4.0000067 0 0 0 3.99997 4.0000298 4.0000067 4.0000067 0 0 0 4.0000295-4.0000298 4.0000067 4.0000067 0 0 0 -4.0000295-4.00004zm0 1.43113a2.5689065 2.5689065 0 0 1 2.5688995 2.56891 2.5689065 2.5689065 0 0 1 -2.5688995 2.5688998 2.5689065 2.5689065 0 0 1 -2.56891-2.5688998 2.5689065 2.5689065 0 0 1 2.56891-2.56891z" fill="url(#a)" opacity=".1"/><circle cx="-7.99966" cy="-8.000006" fill="#a7a7f1" r="3" transform="matrix(0 -1 -1 0 0 0)"/><circle cx="-7.999721" cy="-8.000006" fill="#8f76e4" r="2" transform="matrix(0 -1 -1 0 0 0)"/><circle cx="-7.999721" cy="-8.000006" fill="#8c59d9" r="1" transform="matrix(0 -1 -1 0 0 0)"/><g enable-background="new" transform="matrix(.24444459 0 0 .24444459 -74.135876 -28.17814)"><circle cx="-193.32324" cy="-312.14258" fill="#7839b7" r="2.045453" transform="matrix(-.13917307 -.99026807 -.99026807 .13917307 0 0)"/><g fill="#fff" transform="matrix(.99026807 -.13917307 .13917307 .99026807 0 0)"><circle cx="313.05655" cy="192.62547" opacity=".3" r=".613636"/><circle cx="311.20837" cy="194.01817" opacity=".3" r=".204545"/></g></g><circle cx="9.500006" cy="6.499721" fill="#fff" opacity=".2" r="1.5"/><circle cx="12.500006" cy="4.499721" fill="#df382c" r=".5"/><path d="m3.8242188 1.5c-3.01432007-.0149-3.3242188.3118556-3.3242188 3.3535156v.5019532c0-3.0416601.30989873-3.3703688 3.3242188-3.3554688h4.1757812 4.175781c3.01432-.01491 3.324219.3138088 3.324219 3.3554688v-.5019532c0-3.04166-.309899-3.3684256-3.324219-3.3535156h-4.175781z" fill="#0a0000" opacity=".2"/><path d="m12.175781 14.499534c3.01432.0149 3.324219-.311855 3.324219-3.353515v-.501954c0 3.041661-.309899 3.370369-3.324219 3.355469h-4.1757812-4.175781c-3.01432003.01491-3.32421903-.313809-3.32421903-3.355469v.501954c0 3.04166.309899 3.368425 3.32421903 3.353515h4.175781z" fill="#0a0000" opacity=".2"/></svg>

<?xml version="1.0" encoding="UTF-8" standalone="no"?>
<svg
   xmlns:osb="http://www.openswatchbook.org/uri/2009/osb"
   xmlns:dc="http://purl.org/dc/elements/1.1/"
   xmlns:cc="http://creativecommons.org/ns#"
   xmlns:rdf="http://www.w3.org/1999/02/22-rdf-syntax-ns#"
   xmlns:svg="http://www.w3.org/2000/svg"
   xmlns="http://www.w3.org/2000/svg"
   xmlns:xlink="http://www.w3.org/1999/xlink"
   xmlns:sodipodi="http://sodipodi.sourceforge.net/DTD/sodipodi-0.dtd"
   xmlns:inkscape="http://www.inkscape.org/namespaces/inkscape"
   height="16"
   id="svg7384"
   version="1.1"
   width="16"
   sodipodi:docname="camera-app.svg"
   inkscape:version="0.92.4 (5da689c313, 2019-01-14)">
  <sodipodi:namedview
     pagecolor="#ffffff"
     bordercolor="#666666"
     borderopacity="1"
     objecttolerance="10"
     gridtolerance="10"
     guidetolerance="10"
     inkscape:pageopacity="0"
     inkscape:pageshadow="2"
     inkscape:window-width="1276"
     inkscape:window-height="973"
     id="namedview9511"
     showgrid="false"
     inkscape:zoom="41.125"
     inkscape:cx="3.4042553"
     inkscape:cy="7.7501042"
     inkscape:window-x="70"
     inkscape:window-y="27"
     inkscape:window-maximized="0"
     inkscape:current-layer="svg7384" />
  <metadata
     id="metadata20854">
    <rdf:RDF>
      <cc:Work
         rdf:about="">
        <dc:title />
        <dc:format>image/svg+xml</dc:format>
        <dc:type
           rdf:resource="http://purl.org/dc/dcmitype/StillImage" />
      </cc:Work>
    </rdf:RDF>
  </metadata>
  <defs
     id="defs7386">
    <linearGradient
       id="linearGradient5606"
       osb:paint="solid">
      <stop
         id="stop5608"
         offset="0"
         style="stop-color:#000000;stop-opacity:1;" />
    </linearGradient>
    <linearGradient
       id="linearGradient4526"
       osb:paint="solid">
      <stop
         id="stop4528"
         offset="0"
         style="stop-color:#ffffff;stop-opacity:1;" />
    </linearGradient>
    <linearGradient
       id="linearGradient3600-4"
       osb:paint="gradient">
      <stop
         id="stop3602-7"
         offset="0"
         style="stop-color:#f4f4f4;stop-opacity:1" />
      <stop
         id="stop3604-6"
         offset="1"
         style="stop-color:#dbdbdb;stop-opacity:1" />
    </linearGradient>
    <clipPath
       clipPathUnits="userSpaceOnUse"
       id="clipPath983">
      <path
         sodipodi:nodetypes="scccssscsss"
         inkscape:connector-curvature="0"
         id="path985"
         d="m 325.09646,237 c -2.80769,0 -3.10979,0.28839 -3.09603,3.10176 V 244 v 3.89824 c -0.0138,2.81337 0.28834,3.10176 3.09603,3.10176 h 5.8075 C 333.71166,251 334,250.71165 334,247.89824 V 244 240.10176 C 334,237.28836 333.71165,237 330.90396,237 Z"
         style="color:#000000;display:inline;overflow:visible;visibility:visible;opacity:1;fill:#46a926;fill-opacity:1;fill-rule:nonzero;stroke:none;stroke-width:2;stroke-miterlimit:4;stroke-dasharray:none;stroke-opacity:1;marker:none;enable-background:accumulate" />
    </clipPath>
    <radialGradient
       inkscape:collect="always"
       xlink:href="#linearGradient4398"
       id="radialGradient983"
       gradientUnits="userSpaceOnUse"
       gradientTransform="matrix(0,-0.04166673,-0.04166673,0,-2.6750155,-2.6669898)"
       cx="-256"
       cy="-256.20001"
       fx="-256"
       fy="-256.20001"
       r="96" />
    <linearGradient
       inkscape:collect="always"
       id="linearGradient4398">
      <stop
         id="stop4402"
         offset="0"
         style="stop-color:#000000;stop-opacity:0;" />
      <stop
         style="stop-color:#000000;stop-opacity:0"
         offset="0.89867342"
         id="stop4408" />
      <stop
         id="stop4410"
         offset="0.94933045"
         style="stop-color:#000000;stop-opacity:0.26165804" />
      <stop
         id="stop4400"
         offset="1"
         style="stop-color:#000000;stop-opacity:1;" />
    </linearGradient>
  </defs>
  <g
     id="layer9"
     label="status"
     style="display:inline"
     transform="translate(-853.00024,147.00006)" />
  <g
     id="layer2"
     style="display:inline"
     transform="translate(-612.00004,-219.99994)" />
  <g
     id="layer4"
     style="display:inline"
     transform="translate(-612.00004,-219.99994)" />
  <g
     id="g1812"
     style="display:inline"
     transform="translate(-612.00004,-219.99994)" />
  <g
     id="g6217"
     style="display:inline"
     transform="translate(-612.00004,-219.99994)" />
  <g
     id="layer3"
     style="display:inline"
     transform="translate(-612.00004,-219.99994)" />
  <g
     id="layer1"
     style="display:inline"
     transform="translate(-612.00004,-219.99994)" />
  <path
     style="color:#000000;display:inline;overflow:visible;visibility:visible;fill:#e6e6e6;fill-opacity:1;fill-rule:nonzero;stroke:none;stroke-width:1;marker:none;enable-background:accumulate"
     d="m 15.500014,4.8542202 c 0,-3.04166 -0.30899,-3.36894 -3.32331,-3.35403 h -4.1766895 -4.17669 c -3.01432002,-0.0149 -3.32331006,0.31237 -3.32331006,3.35403 V 11.14568 c 0,3.04167 0.30895004,3.35404 3.32331006,3.35404 h 4.17669 4.1766895 c 3.01435,0 3.32331,-0.31238 3.32331,-3.35404 z"
     id="path918"
     inkscape:connector-curvature="0"
     sodipodi:nodetypes="scccssscsss" />
  <circle
     cy="-8.0000057"
     cx="-7.9997206"
     transform="matrix(0,-1,-1,0,0,0)"
     id="circle955"
     style="color:#000000;display:inline;overflow:visible;visibility:visible;opacity:0.05;fill:#000000;fill-opacity:1;stroke:#000000;stroke-width:1.33333337;stroke-miterlimit:4;stroke-dasharray:none;stroke-opacity:1;marker:none;enable-background:accumulate"
     r="5.3333335" />
  <circle
     style="color:#000000;display:inline;overflow:visible;visibility:visible;opacity:0.1;fill:#000000;fill-opacity:1;stroke:none;stroke-width:0.14090911;marker:none;enable-background:accumulate"
     id="circle957"
     transform="matrix(0,-1,-1,0,0,0)"
     cx="-8.9997206"
     cy="-8.0000057"
     r="5" />
  <circle
     r="5"
     cy="-8.0000057"
     cx="-7.9997206"
     transform="matrix(0,-1,-1,0,0,0)"
     id="circle959"
     style="color:#000000;display:inline;overflow:visible;visibility:visible;fill:#f2f2f2;fill-opacity:1;stroke:none;stroke-width:0.14090911;marker:none;enable-background:accumulate" />
  <circle
     style="color:#000000;display:inline;overflow:visible;visibility:visible;fill:#46444a;fill-opacity:1;stroke:none;stroke-width:0.09999999;marker:none;enable-background:accumulate"
     id="circle961"
     transform="matrix(0,-1,-1,0,0,0)"
     cx="-7.9997206"
     cy="-8.0000057"
     r="4" />
  <path
     inkscape:connector-curvature="0"
     id="path963"
     d="m 7.9999745,3.9996502 a 4.0000067,4.0000067 0 0 0 -3.99997,4.00004 4.0000067,4.0000067 0 0 0 3.99997,4.0000298 4.0000067,4.0000067 0 0 0 4.0000295,-4.0000298 4.0000067,4.0000067 0 0 0 -4.0000295,-4.00004 z m 0,1.43113 a 2.5689065,2.5689065 0 0 1 2.5688995,2.56891 2.5689065,2.5689065 0 0 1 -2.5688995,2.5688998 2.5689065,2.5689065 0 0 1 -2.56891,-2.5688998 2.5689065,2.5689065 0 0 1 2.56891,-2.56891 z"
     style="color:#000000;display:inline;overflow:visible;visibility:visible;opacity:0.1;fill:url(#radialGradient983);fill-opacity:1;stroke:none;stroke-width:0.09999999;marker:none;enable-background:accumulate" />
  <circle
     style="color:#000000;display:inline;overflow:visible;visibility:visible;opacity:1;fill:#a7a7f1;fill-opacity:1;stroke:none;stroke-width:0.09374999;marker:none;enable-background:accumulate"
     id="circle965"
     transform="matrix(0,-1,-1,0,0,0)"
     cx="-7.9996595"
     cy="-8.0000057"
     r="3" />
  <circle
     r="2"
     cy="-8.0000057"
     cx="-7.9997206"
     transform="matrix(0,-1,-1,0,0,0)"
     id="circle967"
     style="color:#000000;display:inline;overflow:visible;visibility:visible;opacity:1;fill:#8f76e4;fill-opacity:1;stroke:none;stroke-width:0.06666666;marker:none;enable-background:accumulate" />
  <circle
     style="color:#000000;display:inline;overflow:visible;visibility:visible;opacity:1;fill:#8c59d9;fill-opacity:1;stroke:none;stroke-width:0.05;marker:none;enable-background:accumulate"
     id="circle969"
     transform="matrix(0,-1,-1,0,0,0)"
     cx="-7.9997206"
     cy="-8.0000057"
     r="1" />
  <g
     style="display:inline;enable-background:new"
     id="g977"
     transform="matrix(0.24444459,0,0,0.24444459,-74.135876,-28.17814)">
    <circle
       style="color:#000000;display:inline;overflow:visible;visibility:visible;opacity:1;fill:#7839b7;fill-opacity:1;stroke:none;stroke-width:0.20454547;marker:none;enable-background:accumulate"
       id="circle971"
       transform="matrix(-0.13917307,-0.99026807,-0.99026807,0.13917307,0,0)"
       cx="-193.32324"
       cy="-312.14258"
       r="2.0454533" />
    <circle
       r="0.61363637"
       cy="192.62547"
       cx="313.05655"
       id="circle973"
       style="color:#000000;display:inline;overflow:visible;visibility:visible;opacity:0.3;fill:#ffffff;fill-opacity:1;fill-rule:nonzero;stroke:none;stroke-width:0.40909091;stroke-linecap:butt;stroke-linejoin:miter;stroke-miterlimit:4;stroke-dasharray:none;stroke-dashoffset:0;stroke-opacity:1;marker:none;enable-background:accumulate"
       transform="rotate(-7.9999983)" />
    <circle
       style="color:#000000;display:inline;overflow:visible;visibility:visible;opacity:0.3;fill:#ffffff;fill-opacity:1;fill-rule:nonzero;stroke:none;stroke-width:0.40909091;stroke-linecap:butt;stroke-linejoin:miter;stroke-miterlimit:4;stroke-dasharray:none;stroke-dashoffset:0;stroke-opacity:1;marker:none;enable-background:accumulate"
       id="circle975"
       cx="311.20837"
       cy="194.01817"
       r="0.20454547"
       transform="rotate(-7.9999983)" />
  </g>
  <circle
     r="1.5"
     cy="6.4997206"
     cx="9.5000057"
     id="circle979"
     style="color:#000000;display:inline;overflow:visible;visibility:visible;opacity:0.2;fill:#ffffff;fill-opacity:1;fill-rule:nonzero;stroke:none;stroke-width:0.24999999;stroke-linecap:butt;stroke-linejoin:miter;stroke-miterlimit:4;stroke-dasharray:none;stroke-dashoffset:0;stroke-opacity:1;marker:none;enable-background:accumulate" />
  <circle
     style="color:#000000;display:inline;overflow:visible;visibility:visible;fill:#df382c;fill-opacity:1;fill-rule:nonzero;stroke:none;stroke-width:0.08333334;marker:none;enable-background:accumulate"
     id="circle981"
     cx="12.500006"
     cy="4.4997206"
     r="0.5" />
  <path
     style="color:#000000;display:inline;overflow:visible;visibility:visible;fill:#0a0000;fill-opacity:1;fill-rule:nonzero;stroke:none;stroke-width:1;marker:none;enable-background:accumulate;opacity:0.2"
     d="M 3.8242188 1.5 C 0.80989873 1.4851 0.5 1.8118556 0.5 4.8535156 L 0.5 5.3554688 C 0.5 2.3138087 0.80989873 1.9851 3.8242188 2 L 8 2 L 12.175781 2 C 15.190101 1.98509 15.5 2.3138088 15.5 5.3554688 L 15.5 4.8535156 C 15.5 1.8118556 15.190101 1.48509 12.175781 1.5 L 8 1.5 L 3.8242188 1.5 z "
     id="path858" />
  <path
     id="path863"
     d="M 12.175781,14.499534 C 15.190101,14.514434 15.5,14.187679 15.5,11.146019 v -0.501954 c 0,3.041661 -0.309899,3.370369 -3.324219,3.355469 H 7.9999998 3.8242188 C 0.80989877,14.014444 0.49999977,13.685725 0.49999977,10.644065 v 0.501954 c 0,3.04166 0.309899,3.368425 3.32421903,3.353515 h 4.175781 z"
     style="color:#000000;display:inline;overflow:visible;visibility:visible;opacity:0.2;fill:#0a0000;fill-opacity:1;fill-rule:nonzero;stroke:none;stroke-width:1;marker:none;enable-background:accumulate"
     inkscape:connector-curvature="0" />
</svg>
